svg/piston.svg

<svg xmlns="http://www.w3.org/2000/svg" viewBox="0 0 24 24"><path d="M13 16.18c.5.17.9.45 1.23.82H15v4h-.79c-.32.35-.71.63-1.21.8-1.15.42-2.42.07-3.22-.8H9v-4h.77c.33-.37.73-.65 1.23-.82V12h2zM12 20a1 1 0 0 0 1-1 1 1 0 0 0-1-1 1 1 0 0 0-1 1 1 1 0 0 0 1 1m5-16h-2v1h2v6H7V5h2V4H7V2h10zm-5 5a1 1 0 0 0 1-1 1 1 0 0 0-1-1 1 1 0 0 0-1 1 1 1 0 0 0 1 1"/></svg>

<?xml version="1.0" encoding="UTF-8"?><!DOCTYPE svg PUBLIC "-//W3C//DTD SVG 1.1//EN" "http://www.w3.org/Graphics/SVG/1.1/DTD/svg11.dtd"><svg xmlns="http://www.w3.org/2000/svg" xmlns:xlink="http://www.w3.org/1999/xlink" version="1.1" id="mdi-piston" width="24" height="24" viewBox="0 0 24 24"><path d="M13,16.18C13.5,16.35 13.9,16.63 14.23,17H15V21H14.21C13.89,21.35 13.5,21.63 13,21.8C11.85,22.22 10.58,21.87 9.78,21H9V17H9.77C10.1,16.63 10.5,16.35 11,16.18V12H13V16.18M12,20A1,1 0 0,0 13,19A1,1 0 0,0 12,18A1,1 0 0,0 11,19A1,1 0 0,0 12,20M17,4H15V5H17V11H7V5H9V4H7V2H17V4M12,9A1,1 0 0,0 13,8A1,1 0 0,0 12,7A1,1 0 0,0 11,8A1,1 0 0,0 12,9Z" /></svg>
